dist/img/svg/benefits-05.svg

<svg width="20" height="21" viewBox="0 0 20 21" fill="none" xmlns="http://www.w3.org/2000/svg">
<path d="M19.9153 16.8438L16.2733 10.0859C16.6628 9.20052 16.8576 8.27604 16.8576 7.3125C16.8576 6.0625 16.5459 4.91016 15.9227 3.85547C15.3124 2.80078 14.4815 1.96745 13.4297 1.35547C12.378 0.74349 11.2354 0.4375 10.0019 0.4375C9.24884 0.4375 8.52173 0.554688 7.82059 0.789062C7.13243 1.02344 6.50919 1.35547 5.95087 1.78516C5.39255 2.20182 4.89916 2.6901 4.47068 3.25C4.0422 3.8099 3.71111 4.44141 3.47739 5.14453C3.25666 5.84766 3.1463 6.57031 3.1463 7.3125C3.1463 7.65104 3.16577 7.98307 3.20472 8.30859C3.25666 8.63412 3.32807 8.94662 3.41896 9.24609C3.50985 9.54557 3.62022 9.84505 3.75006 10.1445L0.0885283 16.8438C-0.0413132 17.0781 -0.0283291 17.306 0.127481 17.5273C0.296275 17.7357 0.510513 17.8073 0.770196 17.7422L3.90587 17.0391L4.97706 20.0273C5.06795 20.2747 5.24973 20.4115 5.52239 20.4375C5.53538 20.4375 5.54836 20.4375 5.56135 20.4375C5.80805 20.4375 5.98982 20.3268 6.10668 20.1055L9.30078 14.1484C9.5345 14.1745 9.76821 14.1875 10.0019 14.1875C10.0668 14.1875 10.1318 14.1875 10.1967 14.1875C10.2746 14.1745 10.346 14.168 10.4109 14.168C10.4888 14.168 10.5667 14.1615 10.6446 14.1484L13.8972 20.1055C14.014 20.3268 14.1958 20.4375 14.4425 20.4375C14.4555 20.4375 14.462 20.4375 14.462 20.4375C14.475 20.4375 14.4879 20.4375 14.5009 20.4375C14.7606 20.4115 14.9359 20.2747 15.0268 20.0273L16.098 17.0391L19.2337 17.7422C19.3505 17.7812 19.4674 17.7812 19.5842 17.7422C19.7011 17.6901 19.792 17.6185 19.8569 17.5273C20.0257 17.306 20.0452 17.0781 19.9153 16.8438ZM5.6782 18.2695L4.89916 16.082C4.8602 15.9909 4.80177 15.9128 4.72387 15.8477C4.64596 15.7695 4.55508 15.7174 4.4512 15.6914C4.36031 15.6654 4.26293 15.6654 4.15906 15.6914L1.84139 16.2188L4.49015 11.3945C5.39904 12.6185 6.57411 13.4518 8.01535 13.8945L5.6782 18.2695ZM4.39277 7.3125C4.39277 5.76302 4.93811 4.44141 6.02878 3.34766C7.13243 2.24089 8.45681 1.6875 10.0019 1.6875C11.0147 1.6875 11.9495 1.94141 12.8065 2.44922C13.6635 2.94401 14.3386 3.6276 14.832 4.5C15.3384 5.35938 15.5916 6.29688 15.5916 7.3125C15.5916 7.82031 15.5267 8.32161 15.3968 8.81641C15.267 9.29818 15.0787 9.7474 14.832 10.1641C14.5983 10.5677 14.3062 10.9453 13.9556 11.2969C13.605 11.6354 13.222 11.9284 12.8065 12.1758C12.404 12.4102 11.9625 12.599 11.4821 12.7422C11.0017 12.8724 10.5083 12.9375 10.0019 12.9375C8.98916 12.9375 8.04781 12.6836 7.17787 12.1758C6.32092 11.668 5.63925 10.9844 5.13287 10.125C4.63947 9.26562 4.39277 8.32812 4.39277 7.3125ZM15.8448 15.6914C15.689 15.6523 15.5397 15.6719 15.3968 15.75C15.267 15.8281 15.1696 15.9388 15.1047 16.082L14.3256 18.2891L11.9301 13.9141C12.6572 13.6927 13.3259 13.3672 13.9361 12.9375C14.5594 12.4948 15.0917 11.9674 15.5332 11.3555L18.1625 16.2188L15.8448 15.6914Z" fill="#C78E66"/>
</svg>

<svg width="20" height="21" viewBox="0 0 20 21" fill="none" xmlns="http://www.w3.org/2000/svg"><path d="M19.915 16.844l-3.642-6.758c.39-.885.585-1.81.585-2.774 0-1.25-.312-2.402-.935-3.457a6.763 6.763 0 0 0-2.493-2.5 6.697 6.697 0 0 0-3.428-.917c-.753 0-1.48.117-2.181.351a6.452 6.452 0 0 0-1.87.996A7.52 7.52 0 0 0 4.47 3.25a6.426 6.426 0 0 0-.994 1.895 7.196 7.196 0 0 0-.33 2.168c0 .338.019.67.058.996.052.325.123.638.214.937.09.3.201.6.331.899L.09 16.843a.6.6 0 0 0 .038.683c.17.209.384.28.643.215l3.136-.703 1.071 2.988c.09.248.273.384.545.41h.04c.246 0 .428-.11.545-.332L9.3 14.148c.233.027.467.04.7.04h.196a1.21 1.21 0 0 1 .214-.02c.078 0 .156-.006.234-.02l3.252 5.957a.578.578 0 0 0 .546.332h.058a.585.585 0 0 0 .526-.41l1.071-2.988 3.136.703a.54.54 0 0 0 .35 0 .65.65 0 0 0 .273-.215c.169-.221.188-.449.058-.683zM5.678 18.269L4.9 16.082a.62.62 0 0 0-.175-.234.577.577 0 0 0-.273-.157.556.556 0 0 0-.292 0l-2.318.528 2.65-4.825c.908 1.224 2.083 2.058 3.524 2.5L5.678 18.27zM4.393 7.314c0-1.55.545-2.872 1.636-3.965 1.103-1.107 2.428-1.66 3.973-1.66 1.013 0 1.947.253 2.804.761a5.383 5.383 0 0 1 2.026 2.05c.506.86.76 1.797.76 2.813 0 .507-.065 1.009-.195 1.503a5.524 5.524 0 0 1-1.441 2.48 6.23 6.23 0 0 1-1.15.88 6.06 6.06 0 0 1-1.324.566 5.64 5.64 0 0 1-1.48.195 5.505 5.505 0 0 1-2.824-.761 5.724 5.724 0 0 1-2.045-2.051 5.55 5.55 0 0 1-.74-2.813zm11.452 8.378a.6.6 0 0 0-.448.059.728.728 0 0 0-.292.332l-.78 2.207-2.395-4.375a7.003 7.003 0 0 0 2.006-.976 6.835 6.835 0 0 0 1.597-1.583l2.63 4.864-2.318-.528z" fill="#C78E66"/></svg>
